X: 17389
T: High Road To Linton, The
R: reel
M: 4/4
K: Amajor
|:ce ef a2 ae|fe fg a2 e2|ce ef a2 ae|fa ec B2 A2:|
|:ce eg fd df|ec ce fB Bd|ce eg fd df|ec ac B2 A2:|
|:a2 a2 ef a2|ef ae fa ef|a2 a2 ef ae|fa ec B2 A2:|
|:c2 ec de fd|c2 ec Bc dB|c2 ec de fg|af ec B2 A2:|

